X:8
T:Sl\"angpolska efter Sven Wallin, Tving, Blekinge
R:sl-polska
A:Blekinge
Z:id:hn-sp-8
M:3/4
L:1/16
K:Am
e4 efed d2cB | cdef gagf {fg}f2e2 | e4 efed d2cB | cdef gagf {fg}f2e2 |
A3B cBcd e2ed | cBA^G ^G2A2 A4 :||: "pizz"e2"arco"cc c2cc c2cc |
dcBA ^G2BB B2B2 | A2cc c2cc c2cc | dcBA ^G2BB B2E2 | A^GAB cBcd e4 |
a2a^g b2b^g e2e^g | a2a^g aba^g e3d | cBA^G ^G2A2 A4 :| 

